X: 1
T: Katy Is Waiting
M: 6/8
L: 1/8
R: jig
K: Edor
|:BEE cEE|BAF BAF|D3 FEF|A2B AFD|
BEE cEE|BAF BAF|ABc dBF|FED E3:|
|:e3 efg|fed e2A|ABc d2d|ABc dAF|
e3 efg|fed edB|dcd BAF|BAF E3:|
